X:138
T:Hasaposerviko
O:Grekland
S:Spelas av [[Grupper/Orientexpressen]]
Q:1/2=120
M:4/4
L:1/8
K:A Hijaz _b ^c
"A"A2B2 ABAG|A2B2 ABAG|A2B2 A2B2|c6 A2|
c2d2 cdcB|c2d2 cdcB|c2d2 c2d2|e4 z2e2|
"Dm"f2fe d2z2|"A"e2 ed c2z2|"Dm"d3c d2e2|fedc BAG2|
"Gm"G2^FG A2GA|B2AB c3B|ABcd edcB|1"A"A2E2 A2z2:|2"A"A2A2 B2c2|
|:"Dm"d6 ef|d6 ef|d2ef d2ef|d2d2 zAde|f2f2 f2ef|
"Gm"g^fg2 z2=f2|"A"e2e2 e2de|"Dm"fef2 z2e2|d2d2 d2cd|
"A"ede2 z2d2|c2c2 c2e2|fedc BAG2|
"Gm"G2^FG A2GA|B2AB c3B|ABcd edcB|1"A"A2A2 B2c2:|2"A"A2E2 A2z2|]
(:musicend:)
(:title Hora från Rumänien:)
Elegant 'hora' (dansmelodi) från norra Rumänien. Från den legendariske fiolspelaren Ion Dragois repertoar.

Spelad av [[Grupper/Orientexpressen]]

Öppnas med Finale!


(:title Vlaška četvorka:)
Dans från Serbien, ur den legendariske fiolspelaren Aleksandar Šišić's (uttalas sjisjitj) reperotar. Spelad av [[Grupper/Orientexpressen]].

Titeln uttalas 'vlasjka tjetvorka' och betyder 'vlachisk fyrmannadans'.

Vlacher är ett folk som talar ett språk nära besläktat med rumänska, bor över stora delar av Balkan. 

(:title Mahala moon:)
Melodi uppsnappad och arrangerad av Owe Ronström. Öppnas med Finale! Inspelad av [[Grupper/Orientexpressen]] (på CD:n "Mahala" Sjelvar SJECD 11), i rumänsk zigensk stil. 

Mahale är ett arabiskt ord som lånats in som 'mahala' i rumänskan via romanes. Det syftar på de kvarter i städers utkanter där gatubeläggningar, elbelysning och rinnande vatten brukar upphöra och där zigenare därför tillåts bosätta sig. På senare tid har ordet kommit att syfta också på en musikstil som i de flesta rumäners öron låter typiskt "zigensk" och "orientalisk".

%green% Filen verkar saknas...
(:title Kerstins brudpolska :)
Plankad från CD:n Grov med [[Grupper/Hoven Droven]] \\
[[!Ackord]]
(:music:)
